X: 869
T: Alex Dan MacIsaac's
R: strathspey
M: 4/4
K: Adorian
|:G/|(3AAA A>B (3GGG G>B|(3AAA A>B d/c/B/A/ G>B|A>AA<B G>AB<d|c>AB>G A<GE3/2:|
a/|g<ee<g e>dB>g|e<de>g a<bg>a|g<ee<g G>AB<d|c>AB>G A<GE>a|
g<ee<g e<dB>g|e<d (3efg a2 g>a|g<be<g G>A (3Bcd|c<A (3BAG A<GE3/2||

